X:1
T:Amaryllis
T:Amaryllis
T:(Air par le Roi Louis XIII.)
T:Arranged by A. H. Pease (1838 - 1882) 
T:by Mutopia-2005/10/09-606 - Public Domain
T:by Mutopia-2005/10/09-606 - Public Domain
T:by Mutopia-2005/10/09-606 - Public Domain
C:Arranged by A. H. Pease (1838 - 1882)
Z:by Mutopia-2005/10/09-606 - Public Domain
%%score { ( 1 3 ) | ( 2 4 ) }
L:1/8
Q:1/4=60
M:4/4
K:E
V:1 treble nm="Piano" snm="Pno."
V:3 treble 
V:2 bass 
V:4 bass 
V:1
"^Allegretto" .[=GB].[A=c] | (B e) .[=GB].[A=c] [GB]2 .[B=d].[ce] | %2
 (=d =g) .[Bd].[=ce] [Bd]2 .f.^g | (fb) .f.g (fd') .f.g | ff' .c.d B!<(! .[Bb].[Bb].[Bb]!<)! | %5
 (.[Bb]!>(!.[Bb].[Bb].[Bb] .[Bb]!>)!!pp!.[Bb])!arpeggio!.[egb]!arpeggio!.[egc'] |] %6
"_quasi arpa" !arpeggio![egb]!arpeggio![egbe']!arpeggio![egb]!arpeggio![egc'] !arpeggio![egb]!pp! z !arpeggio![egc']!arpeggio![egc'] | %7
 !arpeggio![dfb]!arpeggio![dfc'] b/a/g/f/ !arpeggio![Beg][egb]!arpeggio![egb]!arpeggio![egc'] | %8
"_sempre arpeggiando" !arpeggio![egb]!arpeggio![egbe']!arpeggio![egb]!arpeggio![egc'] !arpeggio![egb] z [egc'][egc'] | %9
 [dfb][dfc'] b/a/g/f/ !arpeggio![GBe] z!ff!!8va(! !arpeggio![be'g'b'][c'c''] | %10
 !arpeggio![be'g'b'][e'e'']!arpeggio![be'g'b'][c'c''] !arpeggio![be'g'b'] z [c'c''][c'c''] | %11
 !arpeggio![bd'f'b'][c'c''] !arpeggio![bd'f'b']/[aa']/[gg']/[ff']/ [gg'][ee'] !arpeggio![be'g'b'][c'c''] | %12
 !arpeggio![be'g'b'][e'e'']!arpeggio![be'g'b'][c'c''] !arpeggio![be'g'b'] z [c'c''][c'c''] | %13
 !arpeggio![bd'f'b'][c'c''] !arpeggio![bd'f'b']/[aa']/[gg']/[ff']/ [ee'] z!8va)!!f! .[=G,B,].[G,B,] |] %14
[K:G][K:bass] .[F,B,].[E,B,]/.[F,B,]/ .[G,B,].[G,B,] !>![^D,F,B,]2 .[G,B,].[G,B,] | %15
 CB,/A,/ .[D,G,B,].[D,F,A,] (!>![D,F,B,].[B,,D,G,])!f! .[G,B,].[G,B,] | %16
 .[F,B,].[E,B,]/.[F,B,]/ .[G,B,].[G,B,] !>![^D,F,B,]2 .[G,B,].[G,B,] | %17
 CB,/A,/ .[E,G,].[E,F,A,] [^D,F,B,]2[K:treble]!p! [e^gb][eg^c'] |] %18
[K:E] !arpeggio![egb]!arpeggio![egbe']!arpeggio![egb]!arpeggio![egc'] !arpeggio![egb] z !arpeggio![egc']!arpeggio![egc'] | %19
 !arpeggio![dfb]!arpeggio![dfc'] b/a/g/f/ [Beg][GBe][egb][egc'] | %20
 !arpeggio![egb]!arpeggio![egbe']!arpeggio![egb]!arpeggio![egc'] !arpeggio![egb] z !arpeggio![egc']!arpeggio![egc'] | %21
 [dfb][dfc'] b/a/g/f/ [Beg] z!p! .[cc']/.[=d=d']/.[ee']/.[ff']/ |] %22
[K:A] .[ee'].[ff'].[gg'].[aa'] [B,B] z .[aa']/.[gg']/.[ff']/.[aa']/ | %23
 .[gg'].[Bb]/.[cc']/{/e'} .[dd']/.[cc']/.[dd']/.[ee']/ .[cc'].[Aa] .[cc']/.[dd']/.[ee']/.[ff']/ | %24
 .[ee'][ff'].[gg'].[aa'] .[Bb] z .[aa']/.[gg']/.[ff']/.[aa']/ | %25
 [gg'][Bb]/[cc']/{/e'} [dd']/[cc']/[dd']/[ee']/ [cc'] z!8va(! .[c'c'']/.[d'd'']/.[e'e'']/.[f'f'']/ |] %26
!pp! .[e'e''].[f'f''].[g'g''].[a'a''] [bb']2 .[a'a'']/.[g'g'']/.[f'f'']/.[a'a'']/ | %27
 .[g'g''].[bb']/.[c'c'']/{/e''} .[d'd'']/.[c'c'']/.[d'd'']/.[e'e'']/ .[c'c''].[aa'] .[c'c'']/.[d'd'']/.[e'e'']/.[f'f'']/ | %28
!pp! .[e'e''].[f'f''].[g'g''].[a'a''] [bb']2 .[a'a'']/.[g'g'']/.[f'f'']/.[a'a'']/ | %29
 .[g'g''].[bb']/.[c'c'']/{/e''} .[d'd'']/.[c'c'']/.[d'd'']/.[e'e'']/ [c'c''] z .[=ce].[ce]!8va)! |] %30
[K:C] .[B,E].[A,E]/.[B,E]/ .[CE].[CE] !>![^G,B,E]2 .[CE].[CE] | %31
 !>!F(E/D/) .[G,CE].[G,B,D] .[G,CE].[E,G,C] .[CE].[CE] | %32
 .[B,E].[A,E]/.[B,E]/ .[CE].[CE] .[^G,B,E]2 .[CE].[CE] | %33
 !>!F(E/D/) .[A,C].[A,B,D] !>![^G,B,E]2!p! .[^c^c']/.[dd']/.[ee']/.[^f^f']/ |] %34
[K:A]!pp! .[ee'].[ff']!>![gg']!>![aa'] [Bb]2 .[aa']/.[gg']/.[ff']/.[aa']/ | %35
 .[gg'].[Gb]/!>![Ac']/{/e'} .[dd']/.[cc']/.[dd']/.[ee']/ .[cc'].[Aa] .[cc']/.[dd']/.[ee']/.[ff']/ | %36
!pp! .[ee'].[ff'].[gg'].[aa'] .[Bb]2 .[aa']/.[gg']/.[ff']/.[aa']/ | %37
 .[gg'].[Bb]/!>![cc']/{/e'} .[dd']/.[cc']/.[dd']/[Bb]/ [Aa] z !arpeggio![egb]!arpeggio![egc'] |] %38
[K:E] !arpeggio![egb]!arpeggio![egbe']!arpeggio![egb]!arpeggio![egc'] !arpeggio![egb]2 !arpeggio![egc']!arpeggio![egc'] | %39
 [dfb][dfc'] b/a/g/f/ [Beg][GBe][egb][egc'] | %40
 !arpeggio![egb]!arpeggio![egbe']!arpeggio![egb]!arpeggio![egc'] !arpeggio![egb]2 !arpeggio![egc']!arpeggio![egc'] | %41
 [dfb][cdf] b/a/g/f/ [GBe]c!pp! .B/.A/.G/.F/ | .E.C .B,/.A,/.G,/.F,/ E, z [ebe'] z | z8 |] %44
V:2
 .E.E | E2 .E.E (EE,) .=G.G | !>!=G2 .G.G (G=G,) .[F,^F].[F,F] | %3
 [F,D]2 .[F,D].[F,D] [F,D]2 .[F,D].[F,D] | [F,D]2 .[F,^A,E].[F,A,E] [B,D] z z2 | z8 |] %6
 !arpeggio![E,,B,,G,](B,[G,E]B,) !arpeggio![E,,B,,G,](B,[G,E]B,) | %7
 !arpeggio![B,,A,](B,[A,D]B,) !arpeggio![E,,B,,G,](B,[G,E]B,) | %8
 !arpeggio![E,,B,,G,](B,[G,E]B,) !arpeggio![E,,B,,G,](B,[G,E]B,) | %9
 [B,,A,](B,[A,D]B,) [E,G,B,E] z z2 | %10
 !arpeggio![E,,B,,G,] (B,[G,E]B,) !arpeggio![E,,B,,G,] (B,[G,E]B,) | %11
 [B,,A,] (B,[A,D]B,) !arpeggio![E,,B,,G,] (B,[G,E]B,) | %12
 !arpeggio![E,,B,,G,] (B,[G,E]B,) !arpeggio![E,,B,,G,] (B,[G,E]B,) | %13
 [B,,A,] (B,[A,D]B,) !arpeggio![E,G,B,E]2 .[E,,E,].[E,,E,] |] %14
[K:G] .[^D,,^D,].[^C,,^C,]/.[D,,D,]/ .[E,,E,].[E,,E,] !>![B,,,B,,]2 .[E,,E,].[E,,E,] | %15
 !>![A,,,A,,]2 [D,,,D,,][D,,,D,,] !>![G,,,G,,]2 .[E,,E,].[E,,E,] | %16
 .[^D,,^D,].[^C,,^C,]/.[D,,D,]/ .[E,,E,].[E,,E,] !>![B,,,B,,]2 .[E,,E,].[E,,E,] | %17
 !>![A,,,A,,]2 [C,,C,][C,,C,] !>![B,,,B,,]2 z2 |] %18
[K:E] [E,,B,,G,](B,[G,E]B,) [E,,B,,G,](B,[G,E]B,) | [B,,A,](B,[A,D]B,) [E,,B,,G,](B,[G,E]B,) | %20
 [E,,B,,G,](B,[G,E]B,) [E,,B,,G,](B,[G,E]B,) | [B,,A,](B,[A,D]B,) [E,G,B,E] z z2 |] %22
[K:A] [A,CE] (E[CA]E) [D,B,] (D[F,B,]D) | [E,D] (E[DG]E) [A,,E,C] E[CA]E | %24
 [A,,E,C] (E[CA]E) [D,B,] (D[F,B,]D) | [E,D] (E[DG]E) [A,,E,C] (E[CA]E) |] %26
 [A,,E,C] (E[CA]E) [D,B,] (D[F,B,]D) | [E,D] (E[DG]E) [A,,E,C] (E[CA]E) | %28
 [A,,E,C] (E[CA]E) [D,B,] (D[F,B,]D) | [E,D] (E[DG]E) [A,CEA] z [A,,A,][A,,A,] |] %30
[K:C] .[^G,,^G,].[^F,,^F,]/.[G,,G,]/ .[A,,A,].[A,,A,] !>![E,,E,]2 .[A,,A,].[A,,A,] | %31
 !>![D,,D,]2 [G,,,G,,][G,,,G,,] !>![C,,C,]2 [A,,A,][A,,A,] | %32
 .[^G,,^G,].[^F,,^F,]/.[G,,G,]/ .[A,,A,].[A,,A,] !>![E,,E,]2 .[A,,A,].[A,,A,] | %33
 !>![D,,D,]2 [F,,F,][F,,F,] !>![E,,E,]2 z2 |][K:A] [A,CE] (E[CA]E) [D,B,] (D[F,B,]D) | %35
 [E,D] (E[DG]E) [A,,E,C] (E[CA]E) | [A,,E,C] (E[CA]E) [D,B,] (D[F,B,]D) | %37
 [E,D] (E[DG]E) [A,CE] z z2 |][K:E] [E,,B,,G,](B,[G,E]B,) [E,,B,,G,](B,[G,E]B,) | %39
 [B,,A,](B,[A,D]B,) [E,,B,,G,](B,[G,E]B,) | [E,,B,,G,](B,[G,E]B,) [E,,B,,G,](B,[G,E]B,) | %41
 [B,,A,](B,[A,D]B,) [E,G,B,E]C .B,/.A,/.G,/.F,/ | .E,.C, .B,,/.A,,/.G,,/.F,,/ E,, z [E,B,G] z | %43
!pp! E, z z2 z4 |] %44
V:3
 x2 | =G2 x6 | B2 x4 .[B^d].[Bd] | [Bd]2 [Bd][Bd] [Bd]2 [Bd][Bd] | [Bd]2 FF F x3 | x8 |] x8 | %7
 z2 [df][Bd] x4 | x8 | x2 [df][ABd] x2!8va(! x2 | x8 | x8 | x8 | x6!8va)! x2 |][K:G][K:bass] x8 | %15
 [E,G,]2 x6 | x8 | [E,G,]2 x4[K:treble] x2 |][K:E] x8 | x2 [df][Bd] x4 | x8 | x2 [df][Bd] x4 |] %22
[K:A] x8 | x8 | x8 | x6!8va(! x2 |] x8 | x8 | x8 | x8!8va)! |][K:C] x8 | [A,C]2 x6 | x8 | %33
 [A,C]2 x6 |][K:A] x8 | x8 | x8 | x8 |][K:E] x8 | x2 [df][Bd] x4 | x8 | x2 [df][ABd] x4 | x8 | %43
 x8 |] %44
V:4
 x2 | x8 | x8 | x8 | x8 | x8 |] x8 | x8 | x8 | x8 | x8 | x8 | x8 | x8 |][K:G] x8 | x8 | x8 | x8 |] %18
[K:E] x8 | x8 | x8 | x8 |][K:A] x8 | x8 | x8 | x8 |] x8 | x8 | x8 | x8 |][K:C] x8 | x8 | x8 | x8 |] %34
[K:A] x8 | x8 | x8 | x8 |][K:E] x8 | x8 | x8 | x8 | x8 | [E,,,E,,] x7 |] %44

